;FLAVOR:Marlin
;TIME:4489
;Filament used: 4.99817m
;Layer height: 0.2
;MINX:64.7
;MINY:67.2
;MINZ:0.2
;MAXX:115.3
;MAXY:142.8
;MAXZ:22.6
;Generated with Cura_SteamEngine 5.0.0
M140 S60
M105
M190 S60
M104 S200
M105
M109 S200
M82 ;absolute extrusion mode
;Prime the extruder
G92 E0
G28 ;Home
G1 E-5
G29 ; Auto Level
G28 Z
G1 Z20 X180 Y200

G92 E0
G1 F200 E60
G92 E0
G92 E0
G92 E0
G1 F1500 E-6.5
;LAYER_COUNT:113
;LAYER:0
M107
G0 F3600 X67.123 Y69.349 Z0.2
G0 X64.7 Y75
;TYPE:SKIRT
G1 F1500 E0
G1 F1800 X64.74 Y74.211 E0.02628
G1 X64.859 Y73.431 E0.05252
G1 X65.057 Y72.666 E0.0788
G1 X65.331 Y71.926 E0.10505
G1 X65.679 Y71.217 E0.13132
G1 X66.097 Y70.546 E0.15761
G1 X66.58 Y69.922 E0.18385
G1 X67.123 Y69.349 E0.21011
G1 X67.722 Y68.834 E0.23638
G1 X68.37 Y68.383 E0.26264
G1 X69.061 Y67.999 E0.28894
G1 X69.786 Y67.687 E0.31519
G1 X70.539 Y67.45 E0.34144
G1 X71.313 Y67.291 E0.36773
G1 X72.098 Y67.21 E0.39397
G1 X72.5 Y67.2 E0.40735
G1 X107.5 Y67.2 E1.57145
G1 X108.289 Y67.24 E1.59773
G1 X109.069 Y67.359 E1.62397
G1 X109.834 Y67.557 E1.65025
G1 X110.574 Y67.831 E1.6765
G1 X111.283 Y68.179 E1.70277
G1 X111.954 Y68.597 E1.72906
G1 X112.578 Y69.08 E1.75531
G1 X113.151 Y69.623 E1.78156
G1 X113.666 Y70.222 E1.80784
G1 X114.117 Y70.87 E1.8341
G1 X114.501 Y71.561 E1.86039
G1 X114.813 Y72.286 E1.88664
G1 X115.05 Y73.039 E1.9129
G1 X115.209 Y73.813 E1.93918
G1 X115.29 Y74.598 E1.96543
G1 X115.3 Y75 E1.9788
G1 X115.3 Y135 E3.97441
G1 X115.26 Y135.789 E4.00068
G1 X115.141 Y136.569 E4.02693
G1 X114.943 Y137.334 E4.05321
G1 X114.669 Y138.074 E4.07946
G1 X114.321 Y138.783 E4.10572
G1 X113.903 Y139.454 E4.13202
G1 X113.42 Y140.078 E4.15826
G1 X112.877 Y140.651 E4.18452
G1 X112.278 Y141.166 E4.21079
G1 X111.63 Y141.617 E4.23705
G1 X110.939 Y142.001 E4.26335
G1 X110.214 Y142.313 E4.2896
G1 X109.461 Y142.55 E4.31585
G1 X108.687 Y142.709 E4.34213
G1 X107.902 Y142.79 E4.36838
G1 X107.5 Y142.8 E4.38176
G1 X72.5 Y142.8 E5.54586
G1 X71.711 Y142.76 E5.57214
G1 X70.931 Y142.641 E5.59838
G1 X70.166 Y142.443 E5.62466
G1 X69.426 Y142.169 E5.65091
G1 X68.717 Y141.821 E5.67718
G1 X68.046 Y141.403 E5.70347
G1 X67.422 Y140.92 E5.72972
G1 X66.849 Y140.377 E5.75597
G1 X66.334 Y139.778 E5.78225
G1 X65.883 Y139.13 E5.80851
G1 X65.499 Y138.439 E5.8348
G1 X65.187 Y137.714 E5.86105
G1 X64.95 Y136.961 E5.88731
G1 X64.791 Y136.187 E5.91359
G1 X64.71 Y135.402 E5.93983
G1 X64.7 Y135 E5.95321
G1 X64.7 Y75 E7.94882
G0 F3600 X65.1 Y75
G1 F1800 X65.14 Y74.232 E7.9744
G1 X65.259 Y73.472 E7.99998
G1 X65.457 Y72.729 E8.02556
G1 X65.731 Y72.01 E8.05115
G1 X66.078 Y71.324 E8.07672
G1 X66.494 Y70.677 E8.1023
G1 X66.975 Y70.077 E8.12788
G1 X67.516 Y69.53 E8.15347
G1 X68.111 Y69.042 E8.17906
G1 X68.753 Y68.619 E8.20463
G1 X69.436 Y68.264 E8.23023
G1 X70.151 Y67.983 E8.25579
G1 X70.893 Y67.777 E8.2814
G1 X71.651 Y67.649 E8.30697
G1 X72.5 Y67.6 E8.33525
G1 X107.5 Y67.6 E9.49936
G1 X108.268 Y67.64 E9.52493
G1 X109.028 Y67.759 E9.55052
G1 X109.771 Y67.957 E9.57609
G1 X110.49 Y68.231 E9.60169
G1 X111.176 Y68.578 E9.62726
G1 X111.823 Y68.994 E9.65284
G1 X112.423 Y69.475 E9.67842
G1 X112.97 Y70.016 E9.70401
G1 X113.458 Y70.611 E9.7296
G1 X113.881 Y71.253 E9.75517
G1 X114.236 Y71.936 E9.78077
G1 X114.517 Y72.651 E9.80632
G1 X114.723 Y73.393 E9.83194
G1 X114.851 Y74.151 E9.85751
G1 X114.9 Y75 E9.88579
G1 X114.9 Y135 E11.8814
G1 X114.86 Y135.768 E11.90698
G1 X114.741 Y136.528 E11.93256
G1 X114.543 Y137.271 E11.95814
G1 X114.269 Y137.99 E11.98373
G1 X113.922 Y138.676 E12.0093
G1 X113.506 Y139.323 E12.03488
G1 X113.025 Y139.923 E12.06046
G1 X112.484 Y140.47 E12.08605
G1 X111.889 Y140.958 E12.11164
G1 X111.247 Y141.381 E12.13721
G1 X110.564 Y141.736 E12.16281
G1 X109.849 Y142.017 E12.18837
G1 X109.107 Y142.223 E12.21398
G1 X108.349 Y142.351 E12.23955
G1 X107.5 Y142.4 E12.26783
G1 X72.5 Y142.4 E13.43194
G1 X71.732 Y142.36 E13.45751
G1 X70.972 Y142.241 E13.4831
G1 X70.229 Y142.043 E13.50868
G1 X69.51 Y141.769 E13.53427
G1 X68.824 Y141.422 E13.55984
G1 X68.177 Y141.006 E13.58542
G1 X67.577 Y140.525 E13.611
G1 X67.03 Y139.984 E13.63659
G1 X66.542 Y139.389 E13.66218
G1 X66.119 Y138.747 E13.68775
G1 X65.764 Y138.064 E13.71335
G1 X65.483 Y137.349 E13.7389
G1 X65.277 Y136.607 E13.76452
G1 X65.149 Y135.849 E13.79009
G1 X65.1 Y135 E13.81837
G1 X65.1 Y75 E15.81398
G0 F3600 X65.5 Y75
G1 F1800 X65.54 Y74.253 E15.83886
G1 X65.659 Y73.515 E15.86372
G1 X65.857 Y72.793 E15.88862
G1 X66.13 Y72.097 E15.91349
G1 X66.477 Y71.434 E15.93838
G1 X66.892 Y70.811 E15.96328
G1 X67.371 Y70.237 E15.98814
G1 X67.908 Y69.716 E16.01303
G1 X68.498 Y69.257 E16.03789
G1 X69.134 Y68.862 E16.06279
G1 X69.808 Y68.538 E16.08766
G1 X70.513 Y68.288 E16.11254
G1 X71.241 Y68.114 E16.13744
G1 X71.983 Y68.019 E16.16232
G1 X72.5 Y68 E16.17952
G1 X107.5 Y68 E17.34363
G1 X108.247 Y68.04 E17.36851
G1 X108.985 Y68.159 E17.39337
G1 X109.707 Y68.357 E17.41827
G1 X110.403 Y68.63 E17.44314
G1 X111.066 Y68.977 E17.46803
G1 X111.689 Y69.392 E17.49293
G1 X112.263 Y69.871 E17.51779
G1 X112.784 Y70.408 E17.54268
G1 X113.243 Y70.998 E17.56754
G1 X113.638 Y71.634 E17.59244
G1 X113.962 Y72.308 E17.61731
G1 X114.212 Y73.013 E17.64219
G1 X114.386 Y73.741 E17.66709
G1 X114.481 Y74.483 E17.69197
G1 X114.5 Y75 E17.70918
G1 X114.5 Y135 E19.70478
G1 X114.46 Y135.747 E19.72967
G1 X114.341 Y136.485 E19.75453
G1 X114.143 Y137.207 E19.77943
G1 X113.87 Y137.903 E19.8043
G1 X113.523 Y138.566 E19.82918
G1 X113.108 Y139.189 E19.85408
G1 X112.629 Y139.763 E19.87895
G1 X112.092 Y140.284 E19.90383
G1 X111.502 Y140.743 E19.9287
G1 X110.866 Y141.138 E19.9536
G1 X110.192 Y141.462 E19.97847
G1 X109.487 Y141.712 E20.00335
G1 X108.759 Y141.886 E20.02824
G1 X108.017 Y141.981 E20.05312
G1 X107.5 Y142 E20.07033
G1 X72.5 Y142 E21.23444
G1 X71.753 Y141.96 E21.25932
G1 X71.015 Y141.841 E21.28418
G1 X70.293 Y141.643 E21.30908
G1 X69.597 Y141.37 E21.33395
G1 X68.934 Y141.023 E21.35884
G1 X68.311 Y140.608 E21.38373
G1 X67.737 Y140.129 E21.4086
G1 X67.216 Y139.592 E21.43348
G1 X66.757 Y139.002 E21.45835
G1 X66.362 Y138.366 E21.48325
G1 X66.038 Y137.692 E21.50812
G1 X65.788 Y136.987 E21.533
G1 X65.614 Y136.259 E21.5579
G1 X65.519 Y135.517 E21.58278
G1 X65.5 Y135 E21.59998
G1 X65.5 Y75 E23.59559
G0 F3600 X65.9 Y75
G1 F1800 X65.94 Y74.275 E23.61974
G1 X66.059 Y73.558 E23.64391
G1 X66.257 Y72.859 E23.66808
G1 X66.53 Y72.186 E23.69223
G1 X66.875 Y71.547 E23.71639
G1 X67.289 Y70.95 E23.74055
G1 X67.765 Y70.402 E23.76469
G1 X68.299 Y69.909 E23.78887
G1 X68.884 Y69.479 E23.81301
G1 X69.513 Y69.115 E23.83718
G1 X70.178 Y68.822 E23.86135
G1 X70.871 Y68.604 E23.88552
G1 X71.583 Y68.464 E23.90965
G1 X72.5 Y68.4 E23.94023
G1 X107.5 Y68.4 E25.10433
G1 X108.225 Y68.44 E25.12848
G1 X108.942 Y68.559 E25.15265
G1 X109.641 Y68.757 E25.17682
G1 X110.314 Y69.03 E25.20097
G1 X110.953 Y69.375 E25.22513
G1 X111.55 Y69.789 E25.24929
G1 X112.098 Y70.265 E25.27343
G1 X112.591 Y70.799 E25.29761
G1 X113.021 Y71.384 E25.32175
G1 X113.385 Y72.013 E25.34592
G1 X113.678 Y72.678 E25.37009
G1 X113.896 Y73.371 E25.39426
G1 X114.036 Y74.083 E25.41839
G1 X114.1 Y75 E25.44897
G1 X114.1 Y135 E27.44457
G1 X114.06 Y135.725 E27.46872
G1 X113.941 Y136.442 E27.4929
G1 X113.743 Y137.141 E27.51706
G1 X113.47 Y137.814 E27.54122
G1 X113.125 Y138.453 E27.56537
G1 X112.711 Y139.05 E27.58953
G1 X112.235 Y139.598 E27.61368
G1 X111.701 Y140.091 E27.63785
G1 X111.116 Y140.521 E27.662
G1 X110.487 Y140.885 E27.68617
G1 X109.822 Y141.178 E27.71034
G1 X109.129 Y141.396 E27.7345
G1 X108.417 Y141.536 E27.75863
G1 X107.5 Y141.6 E27.78921
G1 X72.5 Y141.6 E28.95331
G1 X71.775 Y141.56 E28.97746
G1 X71.058 Y141.441 E29.00164
G1 X70.359 Y141.243 E29.0258
G1 X69.686 Y140.97 E29.04996
G1 X69.047 Y140.625 E29.07411
G1 X68.45 Y140.211 E29.09827
G1 X67.902 Y139.735 E29.12242
G1 X67.409 Y139.201 E29.14659
G1 X66.979 Y138.616 E29.17074
G1 X66.615 Y137.987 E29.19491
G1 X66.322 Y137.322 E29.21908
G1 X66.104 Y136.629 E29.24324
G1 X65.964 Y135.917 E29.26737
G1 X65.9 Y135 E29.29795
G1 X65.9 Y75 E31.29356
G0 F3600 X66.3 Y75
G1 F1800 X66.34 Y74.297 E31.31698
G1 X66.459 Y73.603 E31.3404
G1 X66.657 Y72.928 E31.36379
G1 X66.929 Y72.279 E31.3872
G1 X67.274 Y71.665 E31.41062
G1 X67.685 Y71.094 E31.43402
G1 X68.159 Y70.573 E31.45745
G1 X68.689 Y70.109 E31.48088
G1 X69.268 Y69.709 E31.50428
G1 X69.889 Y69.377 E31.5277
G1 X70.543 Y69.117 E31.55111
G1 X71.223 Y68.933 E31.57454
G1 X71.919 Y68.827 E31.59796
G1 X72.5 Y68.8 E31.6173
G1 X107.5 Y68.8 E32.78141
G1 X108.203 Y68.84 E32.80483
G1 X108.897 Y68.959 E32.82825
G1 X109.572 Y69.157 E32.85164
G1 X110.221 Y69.429 E32.87505
G1 X110.835 Y69.774 E32.89847
G1 X111.406 Y70.185 E32.92187
G1 X111.927 Y70.659 E32.9453
G1 X112.391 Y71.189 E32.96873
G1 X112.791 Y71.768 E32.99214
G1 X113.123 Y72.389 E33.01556
G1 X113.383 Y73.043 E33.03896
G1 X113.567 Y73.723 E33.06239
G1 X113.673 Y74.419 E33.08581
G1 X113.7 Y75 E33.10516
G1 X113.7 Y135 E35.10076
G1 X113.66 Y135.703 E35.12418
G1 X113.541 Y136.397 E35.1476
G1 X113.343 Y137.072 E35.171
G1 X113.071 Y137.721 E35.1944
G1 X112.726 Y138.335 E35.21783
G1 X112.315 Y138.906 E35.24123
G1 X111.841 Y139.427 E35.26466
G1 X111.311 Y139.891 E35.28808
G1 X110.732 Y140.291 E35.31149
G1 X110.111 Y140.623 E35.33491
G1 X109.457 Y140.883 E35.35832
G1 X108.777 Y141.067 E35.38175
G1 X108.081 Y141.173 E35.40517
G1 X107.5 Y141.2 E35.42451
G1 X72.5 Y141.2 E36.58862
G1 X71.797 Y141.16 E36.61204
G1 X71.103 Y141.041 E36.63545
G1 X70.428 Y140.843 E36.65885
G1 X69.779 Y140.571 E36.68226
G1 X69.165 Y140.226 E36.70568
G1 X68.594 Y139.815 E36.72908
G1 X68.073 Y139.341 E36.75251
G1 X67.609 Y138.811 E36.77594
G1 X67.209 Y138.232 E36.79934
G1 X66.877 Y137.611 E36.82276
G1 X66.617 Y136.957 E36.84617
G1 X66.433 Y136.277 E36.8696
G1 X66.327 Y135.581 E36.89302
G1 X66.3 Y135 E36.91236
G1 X66.3 Y75 E38.90797
G0 F3600 X66.7 Y75
G1 F1800 X66.74 Y74.32 E38.93063
G1 X66.859 Y73.65 E38.95326
G1 X67.056 Y72.998 E38.97591
G1 X67.328 Y72.374 E38.99855
G1 X67.672 Y71.786 E39.02121
G1 X68.082 Y71.242 E39.04387
G1 X68.553 Y70.751 E39.0665
G1 X69.078 Y70.317 E39.08915
G1 X69.65 Y69.948 E39.11179
G1 X70.262 Y69.649 E39.13445
G1 X70.904 Y69.424 E39.15708
G1 X71.569 Y69.275 E39.17974
G1 X72.5 Y69.2 E39.21081
G1 X107.5 Y69.2 E40.37491
G1 X108.18 Y69.24 E40.39757
G1 X108.85 Y69.359 E40.4202
G1 X109.502 Y69.556 E40.44285
G1 X110.126 Y69.828 E40.4655
G1 X110.714 Y70.172 E40.48815
G1 X111.258 Y70.582 E40.51081
G1 X111.749 Y71.053 E40.53344
G1 X112.183 Y71.578 E40.5561
G1 X112.552 Y72.15 E40.57874
G1 X112.851 Y72.762 E40.60139
G1 X113.076 Y73.404 E40.62402
G1 X113.225 Y74.069 E40.64668
G1 X113.3 Y75 E40.67775
G1 X113.3 Y135 E42.67336
G1 X113.26 Y135.68 E42.69601
G1 X113.141 Y136.35 E42.71865
G1 X112.944 Y137.002 E42.7413
G1 X112.672 Y137.626 E42.76394
G1 X112.328 Y138.214 E42.7866
G1 X111.918 Y138.758 E42.80925
G1 X111.447 Y139.249 E42.83188
G1 X110.922 Y139.683 E42.85454
G1 X110.35 Y140.052 E42.87718
G1 X109.738 Y140.351 E42.89983
G1 X109.096 Y140.576 E42.92246
G1 X108.431 Y140.725 E42.94513
G1 X107.5 Y140.8 E42.97619
G1 X72.5 Y140.8 E44.1403
G1 X71.82 Y140.76 E44.16295
G1 X71.15 Y140.641 E44.18559
G1 X70.498 Y140.444 E44.20824
G1 X69.874 Y140.172 E44.23088
G1 X69.286 Y139.828 E44.25354
G1 X68.742 Y139.418 E44.2762
G1 X68.251 Y138.947 E44.29882
G1 X67.817 Y138.422 E44.32148
G1 X67.448 Y137.85 E44.34412
G1 X67.149 Y137.238 E44.36677
G1 X66.924 Y136.596 E44.3894
G1 X66.775 Y135.931 E44.41207
G1 X66.7 Y135 E44.44313
G1 X66.7 Y75 E46.43874
G0 F3600 X67.1 Y75
G1 F1800 X67.14 Y74.344 E46.4606
G1 X67.259 Y73.698 E46.48245
G1 X67.456 Y73.071 E46.50431
G1 X67.728 Y72.473 E46.52616
G1 X68.07 Y71.912 E46.54801
G1 X68.478 Y71.397 E46.56986
G1 X68.945 Y70.935 E46.59171
G1 X69.465 Y70.534 E46.61355
G1 X70.029 Y70.198 E46.63539
G1 X70.631 Y69.934 E46.65725
G1 X71.26 Y69.744 E46.67911
G1 X71.907 Y69.633 E46.70094
G1 X72.5 Y69.6 E46.72069
G1 X107.5 Y69.6 E47.8848
G1 X108.156 Y69.64 E47.90666
G1 X108.802 Y69.759 E47.9285
G1 X109.429 Y69.956 E47.95036
G1 X110.027 Y70.228 E47.97221
G1 X110.588 Y70.57 E47.99407
G1 X111.103 Y70.978 E48.01592
G1 X111.565 Y71.445 E48.03777
G1 X111.966 Y71.965 E48.05961
G1 X112.302 Y72.529 E48.08144
G1 X112.566 Y73.131 E48.10331
G1 X112.756 Y73.76 E48.12516
G1 X112.867 Y74.407 E48.147
G1 X112.9 Y75 E48.16675
G1 X112.9 Y135 E50.16236
G1 X112.86 Y135.656 E50.18422
G1 X112.741 Y136.302 E50.20606
G1 X112.544 Y136.929 E50.22792
G1 X112.272 Y137.527 E50.24977
G1 X111.93 Y138.088 E50.27163
G1 X111.522 Y138.603 E50.29348
G1 X111.055 Y139.065 E50.31533
G1 X110.535 Y139.466 E50.33717
G1 X109.971 Y139.802 E50.359
G1 X109.369 Y140.066 E50.38087
G1 X108.74 Y140.256 E50.40272
G1 X108.093 Y140.367 E50.42456
G1 X107.5 Y140.4 E50.44431
G1 X72.5 Y140.4 E51.60841
G1 X71.844 Y140.36 E51.63027
G1 X71.198 Y140.241 E51.65212
G1 X70.571 Y140.044 E51.67398
G1 X69.973 Y139.772 E51.69583
G1 X69.412 Y139.43 E51.71768
G1 X68.897 Y139.022 E51.73954
G1 X68.435 Y138.555 E51.76139
G1 X68.034 Y138.035 E51.78323
G1 X67.698 Y137.471 E51.80506
G1 X67.434 Y136.869 E51.82692
G1 X67.244 Y136.24 E51.84878
G1 X67.133 Y135.593 E51.87061
G1 X67.1 Y135 E51.89037
G1 X67.1 Y75 E53.88597
G0 F3600 X67.5 Y75
G1 F1800 X67.54 Y74.369 E53.907
G1 X67.659 Y73.748 E53.92803
G1 X67.856 Y73.148 E53.94904
G1 X68.127 Y72.576 E53.97009
G1 X68.467 Y72.044 E53.99109
G1 X68.873 Y71.559 E54.01213
G1 X69.336 Y71.129 E54.03314
G1 X69.85 Y70.76 E54.05419
G1 X70.406 Y70.46 E54.0752
G1 X70.995 Y70.232 E54.09621
G1 X71.609 Y70.08 E54.11725
G1 X72.5 Y70 E54.147
G1 X107.5 Y70 E55.3111
G1 X108.131 Y70.04 E55.33213
G1 X108.752 Y70.159 E55.35316
G1 X109.352 Y70.356 E55.37417
G1 X109.924 Y70.627 E55.39522
G1 X110.456 Y70.967 E55.41622
G1 X110.941 Y71.373 E55.43726
G1 X111.371 Y71.836 E55.45827
G1 X111.74 Y72.35 E55.47932
G1 X112.04 Y72.906 E55.50033
G1 X112.268 Y73.495 E55.52134
G1 X112.42 Y74.109 E55.54238
G1 X112.5 Y75 E55.57213
G1 X112.5 Y135 E57.56774
G1 X112.46 Y135.631 E57.58877
G1 X112.341 Y136.252 E57.6098
G1 X112.144 Y136.852 E57.6308
G1 X111.873 Y137.424 E57.65185
G1 X111.533 Y137.956 E57.67285
G1 X111.127 Y138.441 E57.69389
G1 X110.664 Y138.871 E57.71491
G1 X110.15 Y139.24 E57.73595
G1 X109.594 Y139.54 E57.75696
G1 X109.005 Y139.768 E57.77797
G1 X108.391 Y139.92 E57.79901
G1 X107.5 Y140 E57.82876
G1 X72.5 Y140 E58.99287
G1 X71.869 Y139.96 E59.0139
G1 X71.248 Y139.841 E59.03493
G1 X70.648 Y139.644 E59.05593
G1 X70.076 Y139.373 E59.07698
G1 X69.544 Y139.033 E59.09798
G1 X69.059 Y138.627 E59.11902
G1 X68.629 Y138.164 E59.14004
G1 X68.26 Y137.65 E59.16108
G1 X67.96 Y137.094 E59.18209
G1 X67.732 Y136.505 E59.2031
G1 X67.58 Y135.891 E59.22414
G1 X67.5 Y135 E59.25389
G1 X67.5 Y75 E61.2495
G0 F3600 X67.9 Y75
G1 F1800 X67.94 Y74.395 E61.26967
G1 X68.059 Y73.801 E61.28982
G1 X68.255 Y73.227 E61.30999
G1 X68.526 Y72.684 E61.33018
G1 X68.865 Y72.181 E61.35035
G1 X69.267 Y71.728 E61.37049
G1 X69.725 Y71.331 E61.39065
G1 X70.232 Y70.998 E61.41083
G1 X70.778 Y70.734 E61.431
G1 X71.354 Y70.545 E61.45116
G1 X71.95 Y70.433 E61.47133
G1 X72.5 Y70.4 E61.48966
G1 X107.5 Y70.4 E62.65376
G1 X108.105 Y70.44 E62.67393
G1 X108.699 Y70.559 E62.69408
G1 X109.273 Y70.755 E62.71425
G1 X109.816 Y71.026 E62.73444
G1 X110.319 Y71.365 E62.75461
G1 X110.772 Y71.767 E62.77476
G1 X111.169 Y72.225 E62.79491
G1 X111.502 Y72.732 E62.81509
G1 X111.766 Y73.278 E62.83526
G1 X111.955 Y73.854 E62.85542
G1 X112.067 Y74.45 E62.87559
G1 X112.1 Y75 E62.89392
G1 X112.1 Y135 E64.88953
G1 X112.06 Y135.605 E64.90969
G1 X111.941 Y136.199 E64.92984
G1 X111.745 Y136.773 E64.95002
G1 X111.474 Y137.316 E64.9702
G1 X111.135 Y137.819 E64.99038
G1 X110.733 Y138.272 E65.01052
G1 X110.275 Y138.669 E65.03068
G1 X109.768 Y139.002 E65.05085
G1 X109.222 Y139.266 E65.07103
G1 X108.646 Y139.455 E65.09119
G1 X108.05 Y139.567 E65.11136
G1 X107.5 Y139.6 E65.12968
G1 X72.5 Y139.6 E66.29379
G1 X71.895 Y139.56 E66.31396
G1 X71.301 Y139.441 E66.33411
G1 X70.727 Y139.245 E66.35428
G1 X70.184 Y138.974 E66.37446
G1 X69.681 Y138.635 E66.39464
G1 X69.228 Y138.233 E66.41478
G1 X68.831 Y137.775 E66.43494
G1 X68.498 Y137.268 E66.45512
G1 X68.234 Y136.722 E66.47529
G1 X68.045 Y136.146 E66.49545
G1 X67.933 Y135.55 E66.51562
G1 X67.9 Y135 E66.53395
